X:29
T:Lady Bruces Reel. LIT.029
M:2/4
Q:1/4=145
L:1/8
B:Wm. Litten MS, 1802
Z:Village Music Project 2017 Anne Wride
K:G
d |: gb af | gd cB | Ac eg | fd de |
gb af | gd cB | ce dc | BG G2 :|
|:DG BG | dG BG | DG BG | FA AB |
DG BG dG BG ce dc | BG G2 :|

